X: 13779
T: Fort Of The Fairy Queen, The
R: reel
M: 4/4
K: Gmajor
|:d2 g2 d3c|B2 AG A2 D2|Bc d2 cd e2|d2 cB A2 D2|
g4 d3c|B2 AG A2 D2|BcdB cBAG|1 GFFG G4:|2 GFFG G3g/a/||
|:b2 b2 b2 ag|a2 f2 f2 ef|g2 e2 a3g|f>ed^c d4|
e2 ge cece|d2 gd BdBd|ceae Bdgd|cBAd f3g/a/|
g4 d3c|B2 AG A2 D2|BcdB cBAG|1 GFFG G3g/a/:|2 GFFG G4||

